X:1
T:Garnered Sheaves
T:Garnered Sheaves
T:Isaiah Baltzell
T:Edmund Simon Lorenz, 1888
T:Public Domain Courtesy of the Cyber Hymnal™
T:Public Domain Courtesy of the Cyber Hymnal™
C:Isaiah Baltzell
Z:Public Domain
Z:Courtesy of the Cyber Hymnal™
%%score ( 1 2 ) ( 3 4 )
L:1/8
Q:1/4=105
M:4/4
K:G
V:1 treble 
V:2 treble 
V:3 bass 
V:4 bass 
V:1
 G>[FA] | [GB]2 [GB]>[GB] (G>A) ([GB]>[Ac]) | [Bd]4 [GB]2 G>[GB] | [EA]2 [EA]2 [DG]2 [DF]2 | %4
w: 1.~At the|feet of the Bless- * èd *|Mas- ter We would|lay our gar- nered|
w: 2.~While the|fields then are white * with *|har- vest, And the|la- bor- ers are|
w: 3.~O the|joy of suc- cess- * ful *|la- bor! O the|joy of work well|
 [DG]6 G>[FA] | [GB]2 [GB]>[GB] (G>A) ([GB]>[Ac]) | [Bd]4 [GB]2 G>[GB] | [EA]2 [EA]2 [DG]2 [DF]2 | %8
w: sheaves; When we|come, and all emp- * ty *|hand- ed, Sure- ly|sore the Mas- ter|
w: few, Let us|strive well to fill * the *|gar- ner, And be|reap- ers staunch and|
w: done! O the|joy of the Mas- * ter’s *|prais- es To the|soul whose crown is|
 [DG]6 ||"^Refrain" [GB]>[Ac] | [Bd]6 G>[FA] | [GB]>[DA] [DG]>[GB] [Ge]>[Gd] [DG]>[GB] | %12
w: grieves!|Gar- nered|sheaves from the|fields so white to har- vest! Gar- nered|
w: true.||||
w: won!||||
 [FA]6 [FA]>[GB] | [Ac]>[GB] [Ac]>[ce] [Bd]>[GB] G>[FA] | [GB]2 [GB]>[GB] (G>A) ([GB]>[Ac]) | %15
w: sheaves rich- ly|yields life’s gold- en har- vest! At the|feet of the Bless- * èd *|
w: |||
w: |||
 [Bd]4 [GB]2 G>[GB] | [EA]2 [EA]2 [DG]2 [DF]2 | [DG]6 |] %18
w: Mas- ter We would|lay our gar- nered|sheaves.|
w: |||
w: |||
V:2
 G3/2 x/ | x4 G2 x2 | x6 G3/2 x/ | x8 | x6 G3/2 x/ | x4 G2 x2 | x6 G3/2 x/ | x8 | x6 || x2 | %10
 x6 G3/2 x/ | x8 | x8 | x6 G3/2 x/ | x4 G2 x2 | x6 G3/2 x/ | x8 | x6 |] %18
V:3
 [G,B,]>[G,C] | [G,D]2 [G,D]>[G,D] (B,>C) [G,D]2 | [G,D]4 [G,D]2 [G,B,]>[G,D] | %3
w: ~ ~|~ ~ ~ ~ * ~|~ ~ ~ ~|
 [C,C]2 [C,C]2 [D,B,]2 [D,A,]2 | [G,,B,]6 [G,B,]>[G,C] | [G,D]2 [G,D]>[G,D] (B,>C) [G,D]2 | %6
w: ~ ~ ~ ~|~ ~ ~|~ ~ ~ ~ * ~|
 [G,D]4 [G,D]2 [G,B,]>[G,D] | [C,C]2 [C,C]2 [D,B,]2 [D,A,]2 | [G,,B,]6 || z2 | %10
w: ~ ~ ~ ~|~ ~ ~ ~|~||
 z2 [G,D]>[G,D] [G,D]2 [G,B,]>[G,C] | [G,D]>[G,C] [G,B,]>[G,D] [G,C]>[G,B,] z2 | %12
w: Gar- nered sheaves, ~ ~|~ ~ ~ ~ ~ ~|
 z2 [D,D]>[D,D] [D,D]2 [D,D]>[D,D] | [D,D]>[D,D] [D,D]>[D,D] [G,D]>[G,D] [G,B,]>[G,C] | %14
w: Gar- nered sheaves, * *||
 [G,D]2 [G,D]>[G,D] (B,>C) [G,D]2 | [G,D]4 [G,D]2 [G,B,]>[G,D] | [C,C]2 [C,C]2 [D,B,]2 [D,A,]2 | %17
w: |||
 [G,,B,]6 |] %18
w: |
V:4
 x2 | x4 G,2 x2 | x8 | x8 | x8 | x4 G,2 x2 | x8 | x8 | x6 || x2 | x8 | x8 | x8 | x8 | x4 G,2 x2 | %15
 x8 | x8 | x6 |] %18

